svg/fluentui-system-icons/ic_fluent_folder_zip_16_filled.svg

<svg width="16" height="16" viewBox="0 0 16 16" fill="none" xmlns="http://www.w3.org/2000/svg">
<path d="M9.00043 4H8.65325L6.09435 6.36703C6.0019 6.45254 5.8806 6.50002 5.75467 6.49998L2 6.4988V11C2 12.1046 2.89543 13 4 13H9.99578L9.99578 11.0004H9.49579C9.21965 11.0004 8.99579 10.7765 8.99579 10.5004C8.99579 10.2243 9.21965 10.0004 9.49579 10.0004H9.99578L9.99579 9.0004H9.50043C9.22429 9.0004 9.00043 8.77654 9.00043 8.5004C9.00043 8.22425 9.22429 8.0004 9.50043 8.0004H9.99579L9.99579 7H9.50043C9.36782 7 9.24065 6.94732 9.14688 6.85355C9.05311 6.75978 9.00043 6.63261 9.00043 6.5V4ZM10.9958 13H11.9978C13.1024 13 13.9978 12.1046 13.9978 11V6C13.9978 4.8963 13.1038 4.0014 12.0004 4V6.5C12.0004 6.77614 11.7766 7 11.5004 7H10.9958L10.9958 9.0004H11.5004C11.7766 9.0004 12.0004 9.22425 12.0004 9.5004C12.0004 9.77654 11.7766 10.0004 11.5004 10.0004H10.9958L10.9958 10.4973L10.9958 10.5004L10.9958 10.5035L10.9958 13ZM10.0004 4H11.0004V6L10.0004 6V4ZM2 5.4988V5C2 3.89543 2.89543 3 4 3H5.75482C5.86868 3 5.97913 3.03886 6.0679 3.11016L7.17592 4H7.1806L5.5591 5.49992L2 5.4988Z" fill="#212121"/>
</svg>

<svg xmlns="http://www.w3.org/2000/svg" width="16" height="16"><path d="M9 4h-.347L6.094 6.367a.5.5 0 0 1-.34.133L2 6.499V11a2 2 0 0 0 2 2h5.996v-2h-.5a.5.5 0 0 1 0-1h.5V9H9.5a.5.5 0 0 1 0-1h.496V7H9.5a.5.5 0 0 1-.5-.5V4Zm1.996 9h1.002a2 2 0 0 0 2-2V6A2 2 0 0 0 12 4v2.5a.5.5 0 0 1-.5.5h-.504v2h.504a.5.5 0 1 1 0 1h-.504v3ZM10 4h1v2h-1V4ZM2 5.499V5a2 2 0 0 1 2-2h1.755a.5.5 0 0 1 .313.11L7.176 4h.005L5.559 5.5 2 5.499Z"/></svg>
